X:1
T:Sehnsucht
T:Sehnsucht
T:Franz Schubert
T:Johann Wolfgang von Goethe
C:Franz Schubert
Z:Johann Wofgang von Goethe
%%score [ 1 2 3 ( 4 5 ) ]
L:1/8
Q:1/4=61
M:2/2
K:E
V:1 treble-8 nm="T1"
V:2 treble-8 nm="T2"
V:3 bass nm="B1"
V:4 bass nm="B2"
V:5 bass 
V:1
!pp!"^Langsam"!<(! e4 e2 e2!<)! |!>(! g3 f!>)! e4 | g4!<(! g2!<)!!>(! (af) | e4!>)! d2 z!p!!<(! f | %4
w: Nur wer die|Sehn- sucht kennt,|weiß, was ich _|lei- de! Al-|
 f3 f f3 f!<)! | =g3!>(! g g3 g!>)! | (=g2"^dim." =f4) e2 |!pp! =d2 d d ^c2 d2 | =g6!p! ^c2 | %9
w: lein und ab- ge-|trennt von al- ler|Freu- * de,|seh' ich ans Fir- ma-|ment nach|
!<(! (=d2 =f2 e2) ^f2!<)! |!>(! a4 =g2!>)! z2 |!pp! e4 =f2 ^f2 | =g3 e =c4 | =f4 e2 ^d2 | e4 =c4 | %15
w: je- * * ner|Sei- te.|Ach! Der mich|liebt und kennt,|ist in der|Wei- te,|
 e4!<(! =f2 ^f2!<)! | =g3 e ^c4 |!p! =d4!<(! e3 e | (=f4 =g4!<)! |!ff!!>(! a8)!>)! |!p! a4 z4 | %21
w: ach! Der mich|liebt und kennt,|ist in der|Wei- *||te.|
 z4 z2 z3/2!pp! =f/ | =f z e z ^d z z3/2 e/ | =f z e z ^d z e z |!<(! (=f4 ^f4- | %25
w: Es|schwin- delt mir, es|brennt mein Ein- ge-|wei- *|
 f4)!<)!!>(! =g4-!>)! | g2 z2 z2 z3/2!pp! =g/ | =g2 z3/2 g/ g2 z3/2 g/ |!<(! =g3 g g2 g2!<)! | %29
w: * de,|_ es|schwin- delt mir, es|brennt mein Ein- ge-|
!>(! f8!>)! |!p! f4 !fermata!z4 |!pp!!<(! e4 e2 e2!<)! |!>(! g3 f!>)! e4 | %33
w: wei-|de.|Nur wer die|Sehn- sucht kennt,|
!<(! g4 g2!<)!!>(! (af)!>)! | e4 d2 z!pp! f | f3 f f3 f |!<(! =g3 g g3 g!<)! | %37
w: weiß, was ich _|lei- de! Al-|lein und ab- ge-|trennt von al- ler|
 (=g2"^dim." =f4 e2- | e2 =g2) =f2 e2 | ^d3 d d3 d |!<(! e2 =f2!<)!!>(! =g2 a2!>)! | %41
w: Freu- * *|* * de, seh'|ich ans Fir- ma-|ment nach je- ner|
 (!turn!=c6 e=d) | =c4 z4 |!pp! e4 e2 e2 | =f3 f f4 | =f4 f2 f2 | =f4 f4 | ^g4"^cresc." g2 g2 | %48
w: Sei- * *|te.|Nur wer die|Sehn- sucht kennt,|weiß, was ich|lei- de,|nur wer die|
 g3 g g4 |!p! a4 g2 f2 |!<(! (e6!<)!!>(! f2)!>)! | g4 z4 |!pp! e4 e2 e2 |!ff! a3 a!>(! a4-!>)! | %54
w: Sehn- sucht kennt,|weiß, was ich|lei- *|de,|nur wer die|Sehn- sucht kennt,|
"^dim." a8 |!pp! =g4 ^f2 e2 |!<(! (e4!<)!!>(! ^g3 f)!>)! | e4 z4 |!pp! d4"^dim." d2 d2 | e3 e e4 | %60
w: _|weiß was ich|lei- * *|de,|nur wer die|Sehn- sucht kennt,|
 =c4 c2 c2 | B8 | B4 z4 |] %63
w: weiß, was ich|lei-|de.|
V:2
!pp!!<(! B4 ^A2 B2!<)! |!>(! d3 d!>)! e4 | e4!<(! (e^e)!<)!!>(! (fc) | (B2 c2)!>)! B2 z!p!!<(! d | %4
w: Nur wer die|Sehn- sucht kennt,|weiß, was _ ich _|lei- * de! Al-|
 d3 d d3 d!<)! | e3!>(! e e3 e!>)! | =c4"^dim." _B4 |!pp! =B2 B B ^A2 B2 | ^c6!p! c2 | %9
w: lein und ab- ge-|trennt von al- ler|Freu- de,|seh' ich ans Fir- ma-|ment nach|
!<(! (=d4 =c2) d2!<)! |!>(! =d4 d2!>)! z2 |!pp! =c4 =d2 ^d2 | e3 e e4 | =c4 c2 c2 | =c4 c4 | %15
w: je- * ner|Sei- te.|Ach! Der mich|liebt und kennt,|ist in der|Wei- te,|
 =c4!<(! =d2 ^d2!<)! | e3 =g e4 |!p! =d4!<(! ^c3 c | (=d4 e4!<)! |!ff!!>(! =f8)!>)! |!p! =f4 z4 | %21
w: ach! Der mich|liebt und kennt,|ist in der|Wei- *||te.|
 z2 z3/2!pp! =c/ c z c z | =c z z3/2 c/ c z c z | =c z c z (c4- |!<(! c8 | ^c4)!<)!!>(! e4-!>)! | %26
w: Es schwin- delt|mir, es brennt mein|Ein- ge- wei-||* de,|
 e2 z2 z2 z3/2!pp! e/ | e2 z3/2 e/ e2 z3/2 e/ |!<(! e3 e e2 e2!<)! |!>(! ^d8!>)! | %30
w: _ es|schwin- delt mir, es|brennt mein Ein- ge-|wei-|
!p! d4 !fermata!z4 |!pp!!<(! B4 ^A2 B2!<)! |!>(! d3 d!>)! e4 |!<(! e4 (e^e)!<)!!>(! (fc)!>)! | %34
w: de.|Nur wer die|Sehn- sucht kennt,|weiß, was _ ich _|
 (B2 c2) B2 z!pp! d | d3 d d3 d |!<(! e3 e e3 e!<)! | (=c4"^dim." _B4 | A4) A2 =c2 | =c3 c c3 c | %40
w: lei- * de! Al-|lein und ab- ge-|trennt von al- ler|Freu- *|* de, seh'|ich ans Fir- ma-|
!<(! =c2 c2!<)!!>(! c2 c2!>)! | (=c6 B2) | =c4 z4 |!pp! e4 e2 e2 | =f3 f f4 | _e4 =d2 ^c2 | %46
w: ment nach je- ner|Sei- *|te.|Nur wer die|Sehn- sucht kennt,|weiß, was ich|
 (c3 =d) d4 | =d4"^cresc." d2 d2 | =d3 ^c c4 |!p! c4 =d2 c2 |!<(! (B2 c2 B2!<)!!>(! ^d2)!>)! | %51
w: lei- * de,|nur wer die|Sehn- sucht kennt,|weiß, was ich|lei- * * *|
 e4 z4 |!pp! e4 e2 e2 |!ff! =f3 f!>(! f4-!>)! |"^dim." f8 |!pp! e4 =c2 (B^A) | %56
w: de,|nur wer die|Sehn- sucht kennt,|_|weiß was ich _|
!<(! (B4!<)!!>(! d4)!>)! | e4 z4 |!pp! =c4"^dim." c2 c2 | B3 B B4 | A4 A2 A2 | G8 | G4 z4 |] %63
w: lei- *|de,|nur wer die|Sehn- sucht kennt,|weiß, was ich|lei-|de.|
V:3
!pp!!<(! G,4 ^^F,2 G,2!<)! |!>(! =C3 C!>)! B,4 | (B,2 ^B,2)!<(! (^C=D)!<)!!>(! C2 | %3
w: Nur wer die|Sehn- sucht kennt,|weiß, _ was _ ich|
 (=B,2 ^A,2)!>)! B,2 z!p!!<(! B, | B,3 B, B,3 B,!<)! | B,3!>(! _B, B,3 B,!>)! | A,4"^dim." =G,4 | %7
w: lei- * de! Al-|lein und ab- ge-|trennt von al- ler|Freu- de,|
!pp! =G,2 G, G, G,2 G,2 | _B,6!p! B,2 |!<(! (=B,4 =C2) C2!<)! |!>(! =C4 B,2!>)! z2 | z8 | %12
w: seh' ich ans Fir- ma-|ment nach|je- * ner|Sei- te.||
!pp! =C6 C2 | A,4 =G,2 ^F,2 | =G,4 E,4 | =C4!<(! C2 C2!<)! | ^C3 C A,4 |!p! =F,4!<(! A,3 A, | %18
w: Ach! der|ist in der|Wei- te,|ach! Der mich|liebt und kennt,|ist in der|
 (A,4 =C4-!<)! |!ff!!>(! C8)!>)! |!p! =C4 z4 | z2 z3/2!pp! A,/ A, z A, z | %22
w: Wei- *||te.|Es schwin- delt|
 A, z z3/2 A,/ A, z A, z | A, z A, z A,4- |!<(! A,8- | A,4!<)!!>(! A,4-!>)! | %26
w: mir, es brennt mein|Ein- ge- wei-||* de,|
 A,2 z2 z2 z3/2!pp! A,/ | ^A,2 z3/2 A,/ B,2 z3/2 B,/ |!<(! =C3 C ^C2 C2!<)! |!>(! F,8!>)! | %30
w: _ es|schwin- delt mir, es|brennt mein Ein- ge-|wei-|
!p! F,4 !fermata!z4 |!pp!!<(! G,4 ^^F,2 G,2!<)! |!>(! =C3 C!>)! B,4 | %33
w: de.|Nur wer die|Sehn- sucht kennt,|
!<(! (B,2 ^B,2) (^C=D)!<)!!>(! C2!>)! | (=B,2 ^A,2) B,2 z!pp! B, | B,3 B, B,3 B, | %36
w: weiß, _ was _ ich|lei- * de! Al-|lein und ab- ge-|
!<(! B,3 _B, B,3 B,!<)! | (A,4"^dim." =G,4 | =F,4) F,2 A,2 | A,3 A, A,3 A, | %40
w: trennt von al- ler|Freu- *|* de, seh'|ich ans Fir- ma-|
!<(! =G,2 =C2!<)!!>(! _B,2 A,2!>)! | (=G,2 A,2 G,4) | =G,4 z4 |!pp! E,4 E,2 E,2 | =F,3 F, F,4 | %45
w: ment nach je- ner|Sei- * *|te.|Nur wer die|Sehn- sucht kennt,|
 =C4 _B,2 A,2 | (E,3 =F,) F,4 | =F,4"^cresc." F,2 F,2 | =F,3 ^E, E,4 |!p! E,4 =F,2 E,2 | %50
w: weiß, was ich|lei- * de,|nur wer die|Sehn- sucht kennt,|weiß, was ich|
!<(! (D,2 E,2 D,2!<)!!>(! ^F,2)!>)! | B,4 z4 |!pp! E,4 E,2 E,2 |!ff! =C3 C!>(! C4-!>)! | %54
w: lei- * * *|de,|nur wer die|Sehn- sucht kennt,|
"^dim." C8 |!pp! =G,4 A,2 G,2 |!<(! (^G,4!<)!!>(! =C2 B,2)!>)! | B,4 z4 |!pp! A,4"^dim." A,2 A,2 | %59
w: _|weiß was ich|lei- * *|de,|nur wer die|
 G,3 G, G,4 | F,4 F,2 F,2 | G,8 | E,4 z4 |] %63
w: Sehn- sucht kennt,|weiß, was ich|lei-|de.|
V:4
!pp!!<(! E,4 E,2 E,2!<)! |!>(! A,3 A,!>)! G,4 | E,4!<(! (CB,)!<)!!>(! A,2 | (G,2 =G,2)!>)! G,2 z2 | %4
w: Nur wer die|Sehn- sucht kennt,|weiß, was _ ich|lei- * de!|
 z4 z2 z!p!!<(! B,, | E,3 =C, C,3 C,!<)! | (=C,6 ^C,2) |!pp! =D,2 D, D, D,2 D,2 | =G,6!p! G,2 | %9
w: Al-|lein und ab- ge-|trennt _|seh' ich ans Fir- ma-|ment nach|
!<(! (=G,2 ^G,2 A,2) A,2!<)! |!>(! F,4 =G,2!>)! z2 | z8 |!pp! =G,6 =C,2 | =F,4 =G,2 ^A,2 | %14
w: je- * * ner|Sei- te.||Ach! der|ist in der|
 =G,4 G,4 | z8 | A,6 A,2 |!p! =D,4!<(! =G,3 G, | (=F,4 _B,4!<)! |!ff!!>(! A,8)!>)! | %20
w: Wei- te,||Ach! der|ist in der|Wei- *||
!p! A,4 z2 z3/2!pp! ^D,/ | D, z E, z =F, z z3/2 E,/ | D, z E, z =F, z z3/2 E,/ | %23
w: te. Es|schwin- delt mir, es|schwin- delt mir, es|
 =D, z E, z =F, z E, z |!<(! (^D,4 =D,4 | ^C,4)!<)!!>(! C,4-!>)! | C,2 z2 z2 z3/2!pp! C,/ | %27
w: brennt mein Ein- ge-|wei- *|* de,|_ es|
 =C,2 z3/2 C,/ B,,2 z3/2 B,,/ |!<(! ^A,,3 A,, A,,2 A,,2!<)! |!>(! B,,8!>)! |!p! B,,4 !fermata!z4 | %31
w: schwin- delt mir, es|brennt mein Ein- ge-|wei-|de.|
!pp!!<(! E,4 E,2 E,2!<)! |!>(! A,3 A,!>)! G,4 |!<(! E,4 (CB,)!<)!!>(! A,2!>)! | (G,2 =G,2) F,2 z2 | %35
w: Nur wer die|Sehn- sucht kennt,|weiß, was _ ich|lei- * de!|
 z4 z2 z!pp! B,, |!<(! E,3 =C, C,3 C,!<)! | =C,3 C,"^dim." C,3 C, | =C,4 C,2 =F,2 | %39
w: Al-|lein und ab- ge-|trennt von al- ler|Freu- de, seh'|
 ^F,3 F, F,3 F, |!<(! =G,2 =F,2!<)!!>(! E,2 ^D,2!>)! | (E,2 =F,2 E,2 =G,F,) | E,4 z4 | %43
w: ich ans Fir- ma-|ment nach je- ner|Sei- * * * *|te.|
!pp! E,4 E,2 E,2 | =F,3 F, F,4 | =F,4 F,2 F,2 | =F,4 F,4 | _B,,4"^cresc." B,,2 B,,2 | %48
w: Nur wer die|Sehn- sucht kennt,|weiß, was ich|lei- de,|nur wer die|
 =B,,3 B,, B,,4 |!p! C,4 ^E,2 F,2 |!<(! (^G,2 ^^F,2 G,2!<)!!>(! A,2)!>)! | G,4 z4 | %52
w: Sehn- sucht kennt,|weiß, was ich|lei- * * *|de,|
!pp! E,4 E,2 E,2 |!ff! A,3 A,!>(! A,4-!>)! |"^dim." A,8 |!pp! =C,4 C,2 E,2 | %56
w: nur wer die|Sehn- sucht kennt,|_|weiß was ich|
!<(! (E,4!<)!!>(! A,4)!>)! | G,4 z4 |!pp! F,4"^dim." F,2 F,2 | G,3 E, E,4 | D,4 D,2 D,2 | %61
w: lei- *|de,|nur wer die|Sehn- sucht kennt,|weiß, was ich|
 (E,6 B,,2) | B,,4 z4 |] %63
w: lei- *|de.|
V:5
 x8 | E,3 E, E,4 | E,4 A,,2 A,,2 | B,,4 B,,2 x2 | x8 | x8 | x8 | x8 | _E,6 E,2 | =D,6 D,2 | %10
 =D,4 =G,2 x2 | x8 | =C,6 C,2 | =C,4 C,2 C,2 | =C,4 C,4 | x8 | A,,6 A,,2 | _B,,4 A,,3 A,, | %18
 (=D,4 =C,4 | =F,8) | =F,4 x4 | x8 | x8 | x8 | x8 | x8 | x8 | x8 | x8 | x8 | x8 | x8 | E,3 E, E,4 | %33
 E,4 A,,2 A,,2 | B,,4 B,,2 x2 | x8 | x8 | x8 | =F,,4 F,,2 F,,2 | ^F,,3 F,, F,,3 F,, | %40
 =G,,2 A,,2 G,,2 ^F,,2 | =G,,8 | =C,4 x4 | E,,4 E,,2 E,,2 | =F,,3 F,, F,,4 | =F,,4 F,,2 F,,2 | %46
 _B,,4 B,,4 | x8 | x8 | A,,4 A,,2 A,,2 | B,,8 | E,4 x4 | x8 | =F,3 F, F,4- | =F,8 | =C,4 C,2 C,2 | %56
 B,,8 | E,4 x4 | E,,4 E,,2 E,,2 | E,,3 E,, E,,4 | E,,4 E,,2 E,,2 | E,,8 | E,,4 x4 |] %63

